X:1
T:5 Lieder, Op.10
T:Bergeslust
T:5. Bergeslust
T:Fanny (Mendelssohn) Hensel
T:Joseph von Eichendorff
T:5 Lieder, Op.10
T:OpenScore (CC0) 
T:OpenScore (CC0) 
T:OpenScore (CC0) 
C:Fanny (Mendelssohn) Hensel
Z:Joseph von Eichendorff
Z:OpenScore (CC0)
Z:
%%score 1 { ( 2 5 ) | ( 3 4 ) }
L:1/8
Q:1/4=140
M:6/8
K:A
V:1 treble nm="Voice"
V:2 treble nm="Piano"
V:5 treble 
V:3 bass 
V:4 bass 
V:1
"^Allegro molto vivace e leggiero." z | z6 | z6 | z6 | z3 z2 E | e2 c A2 F | (E2 G/F/) E2 z | %7
w: ||||O|Lust, vom Berg zu|schau- * * en|
 A G A B2 F | c3 z3 | d B A (GF) E | e3 c2 A | (dB) A (GF) E | e3 z2 e | d2 c B2 A |!<(! a6-!<)! | %15
w: weit ü- ber Wald und|Strom,|hoch ü- ber sich * den|blau- en, den|kla- * ren Him- * mels-|dom, hoch|ü- ber sich den|blau-|
 a6- | (a2 e) c2 f | e2 B d2 c | A3 z3 | z6 | z6 | z3 z2 E | e2 =c A2 =F | (E2 =G/=F/) E2 E | %24
w: |* * en, tief|kla- ren~ Him- mels-|dom.|||Vom|Ber- ge Vö- gel|flie- * * gen, und|
 (=cB) c d2 =G | e3 z2 =c | (=fd) =c (BA) =G | =g3 e2 =c | (=fd) =c (BA) =G | (=G3 =c2) z | z6 | %31
w: Wol- * ken so ge-|schwind, Ge-|dan- * ken ü- * ber-|flie- gen die|Vö- * gel und * den|Wind; *||
 z3 z2 A | e2 =c c2 B | B3 A2 z | z6 | z3 z2 A | =c2 c B2 c | e3 z2 e | e3 ^A3 | ^A3 A3 | (f6 | %41
w: Ge-|dan- ken ü- ber-|flie- gen||die|Vö- gel~ und den|Wind, die|Vö- gel|und den|Wind.|
 G3) z3 | z6 | z6 | z6 | z3 z2 E | e2 c A2 F | (E2 G/F/) E2 E | (AG) A B2 F | c3 z2 c | %50
w: ||||Die|Wol- ken~ ziehn her-|nie- * * der, das|Vög- * lein senkt sich|gleich, Ge-|
 (dB) A (GF) E | e3 c2 A | (dB) A (GF) E | e3 z2 e | d2 c B2 A | a6- | a6- | (a2 e) c2 f | %58
w: dan- * ken~ gehn * und|Lie- der bis|in * das Him- * mel-|reich, Ge-|dan- ken~ gehn, Ge-|dan-||* * ken bis|
 e2 B d2 c | A3 z3 | z3 z2!p! E | c2"^poco rit."[Q:3/8=85] B A2[Q:3/8=80] B | A3 G3 | %63
w: in das Him- mel-|reich.|Ge-|dan- ken gehn und|Lie- der|
[Q:1/4=140]"^a tempo""^cresc.""^cresc." A3 A2 A | c3 e3 |!f! a6- | a3 z2 z | e3 G2 A | d3- d2 c | %69
w: fort bis in's|Him- mel-|reich,||fort bis in's|Him- * mel-|
 A3 z2 z | z6 | z6 | z6 |] %73
w: reich.||||
V:2
 z | z C[CE] [EA][CE][A,C] | z D[DE] [EB][DE][B,D] | z E[CA] z [DF][FA] | z [CE][EA] z [B,E][DB] | %5
 z .C.E .A.E.C | z DE BED | z [A,F][CA] z [B,F][DB] | z C^E [Gc]EC | z DF z EG | z CE AEC | %11
 z DF z EG | z CE AEC | z CE AEC | z [A,D][DA] z [A,D][DA] | z [A,C][CE] z [A,=C][CF] | %16
 z CE [Ac]EC | [DEG]2 z [B,DG]2 z | z C[CE] [EA][CE][A,C] | z D[DE] [EB][DE][B,D] | %20
 z E[CA] z [DF][FA] | z [CE][EA] z [B,E][DB] | z =CE AEC | z DE BED | z [=CE][=G=c] z [B,=F][=GB] | %25
 z E=G =cGE | z [A,=F][DA] z [B,=G][DB] | z =CE [=G=c]EC | z [A,=F][DA] z [B,=G][DB] | z =CE =GEC | %30
 z =CE ^GEC | z =C=F AFC | z =CE [^G=c]EC | z =C=F [A=c]F[CA] | =c2 c B2 c | e3 =c2 A | %36
 z =C[E=c] z C[Ec] | z =C[E=c] z C[Ec] | z ^A,C [E^A]CA, | z ^A,C [E^A]EC | [FB]B,D [FA]B,D | %41
 [EG]B,[DF] [CE]G,[B,D] | z C[CE] [EA][CE][A,C] | z D[DE] [EB][DE][B,D] | z E[CA] z [DF][FA] | %45
 z [CE][EA] z [B,E][EB] | z CE AEC | z DE BED | z [A,F][CA] z [B,F][DB] | z C^E [Gc]EC | %50
 z [DB][Fd] z [B,G][EB] | z CE [Ac]EC | z [DB][Fd] z [B,G][EB] | z CE [Ac]EC | z CE [Ac]EC | %55
 z [A,D][DA] z [B,D][DA] | z [CE][EA] z [=CF][FA] |!f! z CE AEC | [DG]2 z [B,DG]2!p! E | %59
 A2 E ^D2 E | B2 E ^D2 E | c2 B A2 B | A3 G3 |"_cresc.""_cresc." !/![CEA]6 | !/![A,E=GA]6 | %65
 !/![A,DFA]6 | !/![B,=FAB]6 | [CEAc]3 z3 | [B,DG]6 | z C[CE] [EA][CE][A,C] | z E[CA] [Ec][CA][CE] | %71
 z [Ac][Ae] [ca][ec'][cae'] | !arpeggio![ae'a']3 z3 |] %73
V:3
 E, | A,2 E, ^D,2 E, | B,2 E, ^D,2 E, | C2 B, A,2 B, | A,3 G,3 | .A,,.E,.A, .C.A,.E, | %6
 A,,E,G, DG,E, | [F,,F,]2 z [D,,D,]2 z | [C,,C,]^E,G, CG,E, | [B,,,B,,]F,B, [D,,D,]G,B, | %10
 [C,,C,]E,A, CA,E, | [B,,,B,,]F,B, [D,,D,]G,B, | [C,,C,]E,A, CA,E, | =G,,E,A, CA,E, | %14
 [F,,F,]2 z [=F,,=F,]2 z | [E,,E,]2 z [^D,,^D,]2 z | E,,E,A, CA,E, | [E,B,]2 z [E,,E,]2 E, | %18
 A,2 E, ^D,2 E, | B,2 E, ^D,2 E, | C2 B, A,2 B, | A,3 G,3 | z E,A, =CA,E, | z E,G, DG,E, | %24
 [=G,,=G,]2 z [G,,G,]2 z | [=C,,=C,]=G,=C ECA, | [D,,D,]2 z [=F,,=F,]2 z | E,,E,=G, =CG,E, | %28
 [D,,D,]2 z [=F,,=F,]2 z | E,,E,=G, =CG,E, | E,,E,^G, =CG,E, | =F,,=F,A, =CA,F, | E,,E,^G, =CG,E, | %33
 =F,,=F,A, =CA,F, | [^F,,^F,]3 [=G,,=G,]3 | [^G,,^G,]3 [A,,A,]3 | [F,,F,]3 [=G,,=G,]3 | %37
 [^G,,^G,]3 [A,,A,]3 | E,,E,=G, CG,E, | E,,E,=G, CG,E, | [D,,D,]6 | [E,,E,]3 z2 E, | %42
 A,2 E, ^D,2 E, | B,2 E, ^D,2 E, | C2 B, A,2 B, | A,3 G,3 | z E,A, CA,E, | z E,G, DG,E, | %48
 [F,,F,]2 z [D,,D,]2 z | [C,,C,]^E,G, CG,E, | [B,,,B,,]2 z [D,,D,]2 z | [C,,C,]E,A, CA,E, | %52
 [B,,,B,,]2 z [D,,D,]2 z | [C,,C,]E,A, CA,E, | =G,,E,A, CA,E, | [F,,F,]2 z [=F,,=F,]2 z | %56
 [E,,E,]2 z [^D,,^D,]2 z | E,,E,A, CA,E, | [E,B,]2 z [E,,E,]2 E, | A,2 E, ^D,2 E, | %60
 B,2 E, ^D,2 E, | C2"_poco rit." B, A,2 B, | A,3 G,3 | !/![C,E,A,]6 | !/![C,E,=G,]6 | !/![D,F,]6 | %66
 !/![D,=F,A,]6 | [E,A,]3 z3 | [E,,E,]3- [E,,E,]2 E, | A,2 E, ^D,2 E, | C2 A, G,2 A, | E2 C A2 E | %72
 !arpeggio![A,E]3 z3 |] %73
V:4
 x | A,,3 z3 | G,,3 z3 | A,,2 z D,2 z | E,2 z E,2 z | x6 | x6 | x6 | x6 | x6 | x6 | x6 | x6 | x6 | %14
 x6 | x6 | x6 | x6 | A,,3 z3 | G,,3 z3 | A,,2 z D,2 z | E,2 z E,2 z | A,,3 z3 | G,,3 z3 | x6 | x6 | %26
 x6 | x6 | x6 | x6 | x6 | x6 | x6 | x6 | x6 | x6 | x6 | x6 | x6 | x6 | x6 | x6 | A,,3 z3 | %43
 G,,3 z3 | A,,2 z D,2 z | E,6 | A,,3 z3 | G,,3 x3 | x6 | x6 | x6 | x6 | x6 | x6 | x6 | x6 | x6 | %57
 x6 | x6 | A,,3 z3 | G,,3 z3 | A,,2 z D,2 z | E,2 z D,2 z | x6 | x6 | x6 | x6 | x6 | x6 | A,,3 z3 | %70
 A,,2 z z3 | A,,2 z z3 | x6 |] %73
V:5
 x | x6 | x6 | x6 | x6 | x6 | x6 | x6 | x6 | x6 | x6 | x6 | x6 | x6 | x6 | x6 | x6 | x6 | x6 | x6 | %20
 x6 | x6 | x6 | x6 | x6 | x6 | x6 | x6 | x6 | x3 x2 =c | e2 =c c2 B | B3 A3 | x6 | x6 | %34
 z =CE z CE | z =CE z CE | x6 | x6 | x6 | x6 | x6 | x6 | x6 | x6 | x6 | x6 | x6 | x6 | x6 | x6 | %50
 x6 | x6 | x6 | x6 | x6 | x6 | x6 | x6 | x6 | z CC z [A,C][A,C] | z [B,D][B,D] z [B,=D][B,D] | %61
 z E[CE] z [DF][DF] | z [CE][CE] z [B,E][B,E] | x6 | x6 | x6 | x6 | x6 | x6 | x6 | x6 | x6 | %72
 c3 x3 |] %73

